svgs/regular/face-weary.svg

<svg xmlns="http://www.w3.org/2000/svg" viewBox="0 0 512 512"><!--! Font Awesome Pro 6.4.2 by @fontawesome - https://fontawesome.com License - https://fontawesome.com/license (Commercial License) Copyright 2023 Fonticons, Inc. --><path d="M464 256A208 208 0 1 0 48 256a208 208 0 1 0 416 0zM0 256a256 256 0 1 1 512 0A256 256 0 1 1 0 256zm176.5 64.3C196.1 302.1 223.8 288 256 288s59.9 14.1 79.5 32.3C354.5 338.1 368 362 368 384c0 5.4-2.7 10.4-7.2 13.4s-10.2 3.4-15.2 1.3l-17.2-7.5c-22.8-10-47.5-15.1-72.4-15.1s-49.6 5.2-72.4 15.1l-17.2 7.5c-4.9 2.2-10.7 1.7-15.2-1.3s-7.2-8-7.2-13.4c0-22 13.5-45.9 32.5-63.7zm34.8-155.6c6.2 6.2 6.2 16.4 0 22.6l-7.4 7.4c-23.6 23.6-53.9 39.2-86.8 44.7l-2.5 .4c-8.7 1.5-17-4.4-18.4-13.2s4.4-17 13.2-18.4l2.5-.4c26.3-4.4 50.6-16.9 69.5-35.7l7.4-7.4c6.2-6.2 16.4-6.2 22.6 0zm89.4 22.6c-6.2-6.2-6.2-16.4 0-22.6s16.4-6.2 22.6 0l7.4 7.4c18.9 18.9 43.2 31.4 69.5 35.7l2.5 .4c8.7 1.5 14.6 9.7 13.2 18.4s-9.7 14.6-18.4 13.2l-2.5-.4c-32.9-5.5-63.3-21.1-86.8-44.7l-7.4-7.4z"/></svg>

<svg xmlns="http://www.w3.org/2000/svg" viewBox="0 0 512 512"><!--! Font Awesome Pro 6.1.1 by @fontawesome - https://fontawesome.com License - https://fontawesome.com/license (Commercial License) Copyright 2022 Fonticons, Inc. --><path d="M176.5 320.3C196.1 302.1 223.8 288 256 288C288.2 288 315.9 302.1 335.5 320.3C354.5 338.1 368 362 368 384C368 389.4 365.3 394.4 360.8 397.4C356.2 400.3 350.5 400.8 345.6 398.7L328.4 391.1C305.6 381.2 280.9 376 256 376C231.1 376 206.4 381.2 183.6 391.1L166.4 398.7C161.5 400.8 155.8 400.3 151.2 397.4C146.7 394.4 144 389.4 144 384C144 362 157.5 338.1 176.5 320.3zM211.3 164.7C217.6 170.9 217.6 181.1 211.3 187.3L203.9 194.7C180.4 218.3 150 233.9 117.1 239.4L114.6 239.8C105.9 241.2 97.67 235.3 96.22 226.6C94.76 217.9 100.7 209.7 109.4 208.2L111.9 207.8C138.2 203.4 162.5 190.9 181.3 172.1L188.7 164.7C194.9 158.4 205.1 158.4 211.3 164.7zM300.7 187.3C294.4 181.1 294.4 170.9 300.7 164.7C306.9 158.4 317.1 158.4 323.3 164.7L330.7 172.1C349.5 190.9 373.8 203.4 400.2 207.8L402.6 208.2C411.3 209.7 417.2 217.9 415.8 226.6C414.3 235.3 406.1 241.2 397.4 239.8L394.9 239.4C361.1 233.9 331.6 218.3 308.1 194.7L300.7 187.3zM512 256C512 397.4 397.4 512 256 512C114.6 512 0 397.4 0 256C0 114.6 114.6 0 256 0C397.4 0 512 114.6 512 256zM256 48C141.1 48 48 141.1 48 256C48 370.9 141.1 464 256 464C370.9 464 464 370.9 464 256C464 141.1 370.9 48 256 48z"/></svg>
